icons/solid/chevron-double-right.svg

<svg width="24" height="24" viewBox="0 0 24 24" fill="none" xmlns="http://www.w3.org/2000/svg">
<path fill-rule="evenodd" clip-rule="evenodd" d="M5 16C5 16.4044 5.24364 16.7691 5.61732 16.9238C5.99099 17.0786 6.42111 16.9931 6.70711 16.7071L10.7071 12.7071C11.0976 12.3166 11.0976 11.6834 10.7071 11.2929L6.70711 7.29286C6.42111 7.00686 5.99099 6.92131 5.61732 7.07609C5.24364 7.23087 5 7.59551 5 7.99997V16ZM13 16C13 16.4044 13.2436 16.7691 13.6173 16.9238C13.991 17.0786 14.4211 16.9931 14.7071 16.7071L18.7071 12.7071C19.0976 12.3166 19.0976 11.6834 18.7071 11.2929L14.7071 7.29286C14.4211 7.00686 13.991 6.92131 13.6173 7.07609C13.2436 7.23087 13 7.59551 13 7.99997L13 16Z" fill="currentColor"/>
</svg>

<svg width="24" height="24" fill="none" xmlns="http://www.w3.org/2000/svg"><path fill-rule="evenodd" clip-rule="evenodd" d="M5 16a1 1 0 001.707.707l4-4a1 1 0 000-1.414l-4-4A1 1 0 005 8v8zm8 0a1 1 0 001.707.707l4-4a1 1 0 000-1.414l-4-4A1 1 0 0013 8v8z" fill="currentColor"/></svg>
